X: 14777
T: Gan Ainm
R: reel
M: 4/4
K: Dmajor
|:FAEF D3E|(3FED EF DB,B,2|A,B,DE FABc|decd BcAG|
FAEF D3E|(3FED EF DB,B,2|A,B,DE FABA|F2EG FDD2:|
|:d2ec dBB2|FBdB FABc|d2ec dBB2|FBce dBBc|
d2fd cdec|(3dcB (3cBA FB,B,2|A,B,DE FABA|F2EG FDD2:|

